X: 7
T:Sweet Richard. WCl.07
M:2/4
L:1/8
Q:240
S:William Clarke MS,Lincoln,1770.
R:Country Dance.
O:Lincoln
A:England
Z:vmp.Barry Callaghan
K:G
DG- GF/2E/2|FA- AG/2F/2|GB- BA/2G/2|AB c2|
 B-cdB|cABG|EAGF|G2 [G,2G2] ||!
gggg|ffff|eeee|dddd|gggg|ffff|eeee|d2 d2|!
ec e2|dB d2|cBAG| Bc d2| B-cdB|EAGF|G2 [G,2G2] ||
